dist/svgs/unicons/line/music.svg

<svg xmlns="http://www.w3.org/2000/svg" viewBox="0 0 24 24"><path d="M21.65 2.24a1 1 0 00-.8-.23l-13 2A1 1 0 007 5v10.35A3.45 3.45 0 005.5 15 3.5 3.5 0 109 18.5v-7.64l11-1.69v4.18a3.45 3.45 0 00-1.5-.35 3.5 3.5 0 103.5 3.5V3a1 1 0 00-.35-.76zM5.5 20A1.5 1.5 0 117 18.5 1.5 1.5 0 015.5 20zm13-2a1.5 1.5 0 111.5-1.5 1.5 1.5 0 01-1.5 1.5zM20 7.14L9 8.83v-3l11-1.66z"/></svg>

<svg xmlns="http://www.w3.org/2000/svg" viewBox="0 0 24 24"><path d="M21.65,2.24a1,1,0,0,0-.8-.23l-13,2A1,1,0,0,0,7,5V15.35A3.45,3.45,0,0,0,5.5,15,3.5,3.5,0,1,0,9,18.5V10.86L20,9.17v4.18A3.45,3.45,0,0,0,18.5,13,3.5,3.5,0,1,0,22,16.5V3A1,1,0,0,0,21.65,2.24ZM5.5,20A1.5,1.5,0,1,1,7,18.5,1.5,1.5,0,0,1,5.5,20Zm13-2A1.5,1.5,0,1,1,20,16.5,1.5,1.5,0,0,1,18.5,18ZM20,7.14,9,8.83v-3L20,4.17Z"/></svg>
